X:1
T:Del Fie
C:John Wobus
S:John Wobus composed 3/2/2001
M:2/4
R:reel
K:G
|: B3B AGGG |Bddd e4 | d3e dBGA | BGdB BAAA |
B3B AGGG |Bddd e4 | d3e dBGA | BGAF G4 :|
|: g3g eddd | eggg bdad | bdad gedd | eggg agef |
 g3g eddd | edBe dBAF | G3G EDDD | BGAF G4 :|
W:Copyright 2001 John Wobus, PGTPPCATPL AORR
